img/human.svg

<!DOCTYPE svg PUBLIC "-//W3C//DTD SVG 1.1//EN" "http://www.w3.org/Graphics/SVG/1.1/DTD/svg11.dtd">

<!-- Uploaded to: SVG Repo, www.svgrepo.com, Transformed by: SVG Repo Mixer Tools -->
<svg width="800px" height="800px" viewBox="-2.4 -2.4 28.80 28.80" fill="none" xmlns="http://www.w3.org/2000/svg" stroke="#000000" stroke-width="0.00024000000000000003" transform="matrix(-1, 0, 0, 1, 0, 0)rotate(0)">

<g id="SVGRepo_bgCarrier" stroke-width="0" transform="translate(0,0), scale(1)">

<path transform="translate(-2.4, -2.4), scale(0.8999999999999999)" d="M16,30.523067193726696C18.465935728970567,30.346128627193032,19.727615420898942,27.383767744424706,21.964243670925498,26.330373066764075C24.48812549896806,25.141689303750333,28.51300360512398,26.444958806847833,29.853596540590466,23.998377691954374C31.20662875347557,21.52909490497973,27.92044100126986,18.80010809058705,27.624724359562,16C27.371585878529245,13.603059791680678,28.981085527574997,11.221224257803636,28.26128375887413,8.92094452120364C27.489725458736036,6.455265773822358,25.770220411455718,4.244582120159317,23.538770820324626,2.9424659125800563C21.304007797534627,1.638416220559599,18.584188546709253,1.6369716039089242,16,1.766126248985529C13.50472864269971,1.8908369195487604,10.814464995470134,2.0888249924289557,8.8840939005216,3.67488909381413C7.0135205401766125,5.211821170560605,7.2139829225473235,8.142479101548135,5.8255865566573934,10.125799659639592C4.251358501675781,12.374580296981652,0.5938632017221165,13.275829779382317,0.2560689846674613,15.999999999999996C-0.07244113845952815,18.64929785476225,2.5570392340760293,20.721334246944927,4.2564624546888865,22.780134563023836C5.74346500486408,24.581593601112534,7.570082692650038,25.937458928952545,9.520242689177389,27.223268883060626C11.578911553842493,28.580622599223602,13.540450994773545,30.699547492945904,16,30.523067193726696" fill="#7eecbc" strokewidth="0"/>

</g>

<g id="SVGRepo_tracerCarrier" stroke-linecap="round" stroke-linejoin="round" stroke="#CCCCCC" stroke-width="0.048"/>

<g id="SVGRepo_iconCarrier"> <path fill-rule="evenodd" clip-rule="evenodd" d="M22.7099 5.79421C22.4248 5.48211 20.2708 3.17995 17.3257 1.76499C15.8446 1.05339 14.1051 0.537489 12.2683 0.6601C10.5472 0.774986 8.81081 1.44662 7.19057 2.9142C5.13666 2.54192 3.55846 2.92677 2.49394 4.0217C1.40549 5.14125 1.09579 6.77376 1.06276 8.22731C1.02891 9.71678 1.28131 11.2428 1.53146 12.3725C1.65771 12.9426 1.78604 13.4235 1.88331 13.7634C1.93137 13.9314 1.97199 14.0654 2.00124 14.1594C2.08641 19.6088 6.53039 24 12 24C17.2352 24 21.5307 19.9771 21.964 14.8541L22.9867 6.66897C23.0214 6.39118 22.9533 6.06056 22.7099 5.79421ZM4.98994 7.37281C4.23662 8.0105 3.60174 8.76553 3.11347 9.62375C3.07254 9.17353 3.05213 8.71763 3.06224 8.27275C3.09171 6.9763 3.37576 5.98381 3.92793 5.41586C4.41282 4.91712 5.33908 4.51889 7.27096 4.97345C7.60807 5.05277 7.96222 4.95202 8.20711 4.70714C9.61269 3.30155 11.0443 2.74625 12.4015 2.65566C13.7846 2.56334 15.1726 2.94938 16.4596 3.56772C18.5886 4.59057 20.2808 6.17022 20.949 6.84591L20.6506 9.23458C20.1999 8.53573 19.6473 7.91228 19.0101 7.37281C17.1724 5.81727 14.6819 5.00003 12 5.00003C9.31814 5.00003 6.82756 5.81727 4.98994 7.37281ZM20 14C20 14.2189 19.9912 14.4358 19.974 14.6503L19.8864 15.351C19.2444 19.1259 15.9578 22 12 22C7.58172 22 4 18.4183 4 14C4 11.8084 4.87826 10.0877 6.28214 8.89932C7.70188 7.69751 9.7113 7.00003 12 7.00003C14.2887 7.00003 16.2981 7.69751 17.7179 8.89932C19.1217 10.0877 20 11.8084 20 14ZM8.03001 17.2426C7.87428 16.6196 8.36619 16.0003 9.00016 15.9998H15.0002C15.6333 16.0003 16.126 16.6172 15.9703 17.24C15.4525 18.9881 13.7854 20 12.0002 20C10.2834 20 8.46902 18.9986 8.03001 17.2426ZM16.5 12C16.5 12.8285 15.8284 13.5 15 13.5C14.1716 13.5 13.5 12.8285 13.5 12C13.5 11.1716 14.1716 10.5 15 10.5C15.8284 10.5 16.5 11.1716 16.5 12ZM9 13.5C9.82843 13.5 10.5 12.8285 10.5 12C10.5 11.1716 9.82843 10.5 9 10.5C8.17157 10.5 7.5 11.1716 7.5 12C7.5 12.8285 8.17157 13.5 9 13.5Z" fill="#000000"/> </g>

</svg>

<svg fill="none" height="800" stroke="#000" stroke-width=".00024" transform="scale(-1 1)" viewBox="-2.4 -2.4 28.8 28.8" width="800" xmlns="http://www.w3.org/2000/svg"><path d="m16 30.52306719c2.46593573-.17693856 3.72761542-3.13929945 5.96424367-4.19269412 2.52388183-1.18868377 6.54875994.11458574 7.88935287-2.33199538 1.35303221-2.46928279-1.93315554-5.1982696-2.22887218-7.99837769-.25313848-2.39694021 1.35636117-4.77877574.6365594-7.07905548-.7715583-2.46567875-2.49106335-4.6763624-4.72251294-5.97847861-2.23476302-1.30404969-4.95458227-1.30549431-7.53877082-1.17633966-2.49527136.12471067-5.185535.32269874-7.1159061 1.90876284-1.87057336 1.53693208-1.67011098 4.46759001-3.05850734 6.45091057-1.57422806 2.24878064-5.23172336 3.15003012-5.56951758 5.87420034-.32851012 2.64929785 2.30097025 4.72133425 4.00039347 6.78013456 1.48700255 1.80145904 3.31362024 3.15732437 5.26378024 4.44313432 2.05866886 1.35735372 4.0202083 3.47627861 6.47975731 3.29979831" fill="#7eecbc" stroke="none" transform="matrix(.9 0 0 .9 -2.4 -2.4)"/><path clip-rule="evenodd" d="m22.7099 5.79421c-.2851-.3121-2.4391-2.61426-5.3842-4.02922-1.4811-.7116-3.2206-1.227501-5.0574-1.10489-1.7211.114886-3.45749.78652-5.07773 2.2541-2.05391-.37228-3.63211.01257-4.69663 1.1075-1.08845 1.11955-1.39815 2.75206-1.43118 4.20561-.03385 1.48947.21855 3.01549.4687 4.14519.12625.5701.25458 1.051.35185 1.3909.04806.168.08868.302.11793.396.08517 5.4494 4.52915 9.8406 9.99876 9.8406 5.2352 0 9.5307-4.0229 9.964-9.1459l1.0227-8.18513c.0347-.27779-.0334-.60841-.2768-.87476zm-17.71996 1.5786c-.75332.63769-1.3882 1.39272-1.87647 2.25094-.04093-.45022-.06134-.90612-.05123-1.351.02947-1.29645.31352-2.28894.86569-2.85689.48489-.49874 1.41115-.89697 3.34303-.44241.33711.07932.69126-.02143.93615-.26631 1.40558-1.40559 2.83719-1.96089 4.19439-2.05148 1.3831-.09232 2.7711.29372 4.0581.91206 2.129 1.02285 3.8212 2.6025 4.4894 3.27819l-.2984 2.38867c-.4507-.69885-1.0033-1.3223-1.6405-1.86177-1.8377-1.55554-4.3282-2.37278-7.0101-2.37278-2.68186 0-5.17244.81724-7.01006 2.37278zm15.01006 6.62719c0 .2189-.0088.4358-.026.6503l-.0876.7007c-.642 3.7749-3.9286 6.649-7.8864 6.649-4.41828 0-8-3.5817-8-8 0-2.1916.87826-3.9123 2.28214-5.10068 1.41974-1.20181 3.42916-1.89929 5.71786-1.89929s4.2981.69748 5.7179 1.89929c1.4038 1.18838 2.2821 2.90908 2.2821 5.10068zm-11.96999 3.2426c-.15573-.623.33618-1.2423.97015-1.2428h6.00004c.6331.0005 1.1258.6174.9701 1.2402-.5178 1.7481-2.1849 2.76-3.9701 2.76-1.7168 0-3.53118-1.0014-3.97019-2.7574zm8.46999-5.2426c0 .8285-.6716 1.5-1.5 1.5s-1.5-.6715-1.5-1.5c0-.8284.6716-1.5 1.5-1.5s1.5.6716 1.5 1.5zm-7.5 1.5c.82843 0 1.5-.6715 1.5-1.5 0-.8284-.67157-1.5-1.5-1.5s-1.5.6716-1.5 1.5c0 .8285.67157 1.5 1.5 1.5z" fill="#000" fill-rule="evenodd"/></svg>
